packages/icons/src/svg/transformer-window.svg

<svg xmlns="http://www.w3.org/2000/svg" viewBox="0 0 32 32"><path d="M0,2H5V30H0ZM27,2h5V30H27ZM6,22h5l2-3H6Zm13,0h7V19H21ZM9,30H19l.1,2L23,28.1,19,24v2H9ZM16,.5A7.5,7.5,0,1,0,23.5,8,7.50916,7.50916,0,0,0,16,.5Zm1.91083,10.58833-2.5-2.5A.83269.83269,0,0,1,15.16667,8V3.83333h1.66667V7.655l2.25583,2.25583Z"/></svg>

<svg xmlns="http://www.w3.org/2000/svg" viewBox="0 0 32 32">
	<path d="M0 2h5v28H0zm27 0h5v28h-5zM6 22h5l2-3H6zm13 0h7v-3h-5zM9 30h10l.1 2 3.9-3.9-4-4.1v2H9zM16 .5A7.5 7.5 0 1 0 23.5 8 7.51 7.51 0 0 0 16 .5zm1.91 10.588l-2.5-2.5A.833.833 0 0 1 15.168 8V3.833h1.666v3.822l2.256 2.256z"/>
</svg>
